!!!OTL: ES GING EIN JAEGER SPAZIEREN
!!!ARE: Europa, Mitteleuropa, Deutschland, Schlesien, Oppeln
!!!SCT: E1459
!!!YEM: Copyright 1995, estate of Helmut Schaffrath.
**kern
*ICvox
*Ivox
*M2/4
*k[f#c#g#]
*A:
{8e
=1
8a
8a
8b
8b
=2
4cc#
8cc#}
{8b
=3
8a
16a
16b
8cc#
8b
=4
4a
8r}
{8e
=5
8a
8a
8b
8b
=6
4cc#
8cc#}
{8b
=7
8a
16a
16b
8cc#
8b
=8
4a
8r}
{16a
16b
=9
8cc#
8cc#
8ee
16ee
16dd
=10
4cc#
8b}
{8b
=11
8a
8ee
16b
16a
8b
=12
4cc#
8r}
{16cc#
16b
=13
8a
8a
8b
8b
=14
4cc#
8cc#}
{8b
=15
8a
16a
16b
8cc#
8b
=16
4a}
{4b
=17
16cc#
16ee
8cc#
16b
16a
8b
=18
4a
8r}
==
!!!AGN: Staende -, Jaeger - Lied
!!!ONB: ESAC (Essen Associative Code) Database: ERK3
!!!AMT: simple duple
!!!AIN: vox
!!!EED: Helmut Schaffrath
!!!EEV: 1.0
*-
